X: 32903
T: Pota Mor Fatai
R: jig
M: 6/8
K: Edorian
Bee efe|dBA ~B2e|dBA FBA|FEE EFA|
Bee ~f2e|dBA Bcd|efe edB|BAF EFA||
BcB BAF|BAB e2f|edB AFB|AFE EFA||

